docs/public/static/branding/base-ui/react-aria-dark.svg

<svg fill="none" height="37" viewBox="0 0 113 37" width="113" xmlns="http://www.w3.org/2000/svg" xmlns:xlink="http://www.w3.org/1999/xlink"><clipPath id="a"><path d="m12 10.7h18v15.5999h-18z"/></clipPath><rect fill="#14191f" height="36" rx="7.5" width="112" x=".5" y=".5"/><g clip-path="url(#a)" fill="#e1251b"><path d="m23.4023 10.7002h6.6v15.5999z"/><path d="m18.66 10.7007h-6.66v15.5999z"/><path d="m21.0011 16.4607 4.26 9.8399h-2.76l-1.26-3.12h-3.12z"/></g><path d="m36.786 24h-1.582v-9.772h4.214c.8773 0 1.568.266 2.072.798.504.5227.756 1.2367.756 2.142 0 .7-.1633 1.2833-.49 1.75-.3173.4573-.7887.7793-1.414.966l2.114 4.116h-1.764l-1.96-3.948h-1.946zm2.52-5.278c.4013 0 .714-.1027.938-.308.224-.2147.336-.518.336-.91v-.672c0-.392-.112-.6907-.336-.896-.224-.2147-.5367-.322-.938-.322h-2.52v3.108zm7.6108 5.446c-.5227 0-.9894-.0887-1.4-.266-.4107-.1773-.7607-.4293-1.05-.756-.2894-.336-.5134-.7373-.672-1.204-.1494-.476-.224-1.0033-.224-1.582s.0746-1.1013.224-1.568c.1586-.476.3826-.8773.672-1.204.2893-.336.6393-.5927 1.05-.77.4106-.1773.8773-.266 1.4-.266.532 0 .9986.0933 1.4.28.4106.1867.7513.448 1.022.784.2706.3267.4713.7093.602 1.148.14.4387.21.91.21 1.414v.574h-4.998v.238c0 .56.1633 1.022.49 1.386.336.3547.812.532 1.428.532.448 0 .826-.098 1.134-.294s.5693-.462.784-.798l.896.882c-.2707.448-.6627.8073-1.176 1.078-.5134.2613-1.1107.392-1.792.392zm0-6.426c-.2614 0-.504.0467-.728.14-.2147.0933-.4014.224-.56.392-.1494.168-.266.3687-.35.602s-.126.49-.126.77v.098h3.388v-.14c0-.56-.1447-1.008-.434-1.344-.2894-.3453-.686-.518-1.19-.518zm10.2572 6.258c-.4013 0-.7093-.112-.924-.336-.2146-.2333-.3453-.5273-.392-.882h-.07c-.14.4573-.3966.8027-.77 1.036-.3733.2333-.826.35-1.358.35-.756 0-1.3393-.196-1.75-.588-.4013-.392-.602-.9193-.602-1.582 0-.728.2614-1.274.784-1.638.532-.364 1.3067-.546 2.324-.546h1.316v-.616c0-.448-.1213-.7933-.364-1.036-.2426-.2427-.6206-.364-1.134-.364-.4293 0-.7793.0933-1.05.28-.2706.1867-.4993.4247-.686.714l-.91-.826c.2427-.4107.5834-.7467 1.022-1.008.4387-.2707 1.0127-.406 1.722-.406.9427 0 1.666.2193 2.17.658s.756 1.0687.756 1.89v3.654h.77v1.246zm-3.08-.994c.476 0 .868-.1027 1.176-.308.308-.2147.462-.4993.462-.854v-1.05h-1.288c-1.0546 0-1.582.3267-1.582.98v.252c0 .3267.1074.574.322.742.224.1587.5274.238.91.238zm8.2436 1.162c-.5226 0-.9893-.0887-1.4-.266-.4106-.1773-.756-.4293-1.036-.756-.28-.336-.4946-.7373-.644-1.204-.1493-.476-.224-1.0033-.224-1.582s.0747-1.1013.224-1.568c.1494-.476.364-.8773.644-1.204.28-.336.6254-.5927 1.036-.77.4107-.1773.8774-.266 1.4-.266.728 0 1.3254.1633 1.792.49.4667.3267.8074.7607 1.022 1.302l-1.26.588c-.1026-.336-.2846-.602-.546-.798-.252-.2053-.588-.308-1.008-.308-.56 0-.9846.1773-1.274.532-.28.3453-.42.798-.42 1.358v1.302c0 .56.14 1.0173.42 1.372.2894.3453.714.518 1.274.518.448 0 .8027-.1073 1.064-.322.2707-.224.4854-.518.644-.882l1.162.616c-.2426.5973-.6066 1.0547-1.092 1.372-.4853.3173-1.078.476-1.778.476zm6.3388-.168c-.532 0-.9334-.1353-1.204-.406-.2707-.28-.406-.672-.406-1.176v-4.452h-1.134v-1.246h.616c.252 0 .4246-.056.518-.168.1026-.112.154-.294.154-.546v-1.274h1.372v1.988h1.526v1.246h-1.526v4.788h1.414v1.246zm12.6218 0-.882-2.646h-3.654l-.854 2.646h-1.61l3.332-9.772h1.988l3.332 9.772zm-2.674-8.316h-.07l-1.414 4.312h2.884zm5.7276 8.316v-7.28h1.526v1.4h.07c.1026-.3733.3173-.7.644-.98.3266-.28.7793-.42 1.358-.42h.406v1.47h-.602c-.6067 0-1.0734.098-1.4.294-.3174.196-.476.4853-.476.868v4.648zm6.1293-8.582c-.3173 0-.5506-.0747-.7-.224-.14-.1493-.21-.3407-.21-.574v-.238c0-.2333.07-.4247.21-.574.1494-.1493.3827-.224.7-.224.3174 0 .546.0747.686.224s.21.3407.21.574v.238c0 .2333-.07.4247-.21.574s-.3686.224-.686.224zm-.77 1.302h1.526v7.28h-1.526zm9.0391 7.28c-.4013 0-.7093-.112-.924-.336-.2146-.2333-.3453-.5273-.392-.882h-.07c-.14.4573-.3966.8027-.77 1.036-.3733.2333-.826.35-1.358.35-.756 0-1.3393-.196-1.75-.588-.4013-.392-.602-.9193-.602-1.582 0-.728.2614-1.274.784-1.638.532-.364 1.3067-.546 2.324-.546h1.316v-.616c0-.448-.1213-.7933-.364-1.036-.2426-.2427-.6206-.364-1.134-.364-.4293 0-.7793.0933-1.05.28-.2706.1867-.4993.4247-.686.714l-.91-.826c.2427-.4107.5834-.7467 1.022-1.008.4387-.2707 1.0127-.406 1.722-.406.9427 0 1.666.2193 2.17.658s.756 1.0687.756 1.89v3.654h.77v1.246zm-3.08-.994c.476 0 .868-.1027 1.176-.308.308-.2147.462-.4993.462-.854v-1.05h-1.288c-1.0546 0-1.582.3267-1.582.98v.252c0 .3267.1074.574.322.742.224.1587.5274.238.91.238z" fill="#fff"/><rect height="36" rx="7.5" stroke="#2f3a46" stroke-dasharray="4 4" width="112" x=".5" y=".5"/></svg>

<svg width="113" height="37" viewBox="0 0 113 37" fill="none" xmlns="http://www.w3.org/2000/svg">
<rect x="0.5" y="0.5" width="112" height="36" rx="7.5" fill="#14191F"/>
<g clip-path="url(#clip0_6585_844574)">
<path d="M23.4023 10.7002H30.0023V26.3001L23.4023 10.7002Z" fill="#E1251B"/>
<path d="M18.66 10.7007H12V26.3006L18.66 10.7007Z" fill="#E1251B"/>
<path d="M21.0011 16.4607L25.2611 26.3006H22.5011L21.2411 23.1806H18.1211L21.0011 16.4607Z" fill="#E1251B"/>
</g>
<path d="M36.786 24H35.204V14.228H39.418C40.2953 14.228 40.986 14.494 41.49 15.026C41.994 15.5487 42.246 16.2627 42.246 17.168C42.246 17.868 42.0827 18.4513 41.756 18.918C41.4387 19.3753 40.9673 19.6973 40.342 19.884L42.456 24H40.692L38.732 20.052H36.786V24ZM39.306 18.722C39.7073 18.722 40.02 18.6193 40.244 18.414C40.468 18.1993 40.58 17.896 40.58 17.504V16.832C40.58 16.44 40.468 16.1413 40.244 15.936C40.02 15.7213 39.7073 15.614 39.306 15.614H36.786V18.722H39.306ZM46.9168 24.168C46.3941 24.168 45.9274 24.0793 45.5168 23.902C45.1061 23.7247 44.7561 23.4727 44.4668 23.146C44.1774 22.81 43.9534 22.4087 43.7948 21.942C43.6454 21.466 43.5708 20.9387 43.5708 20.36C43.5708 19.7813 43.6454 19.2587 43.7948 18.792C43.9534 18.316 44.1774 17.9147 44.4668 17.588C44.7561 17.252 45.1061 16.9953 45.5168 16.818C45.9274 16.6407 46.3941 16.552 46.9168 16.552C47.4488 16.552 47.9154 16.6453 48.3168 16.832C48.7274 17.0187 49.0681 17.28 49.3388 17.616C49.6094 17.9427 49.8101 18.3253 49.9408 18.764C50.0808 19.2027 50.1508 19.674 50.1508 20.178V20.752H45.1528V20.99C45.1528 21.55 45.3161 22.012 45.6428 22.376C45.9788 22.7307 46.4548 22.908 47.0708 22.908C47.5188 22.908 47.8968 22.81 48.2048 22.614C48.5128 22.418 48.7741 22.152 48.9888 21.816L49.8848 22.698C49.6141 23.146 49.2221 23.5053 48.7088 23.776C48.1954 24.0373 47.5981 24.168 46.9168 24.168ZM46.9168 17.742C46.6554 17.742 46.4128 17.7887 46.1888 17.882C45.9741 17.9753 45.7874 18.106 45.6288 18.274C45.4794 18.442 45.3628 18.6427 45.2788 18.876C45.1948 19.1093 45.1528 19.366 45.1528 19.646V19.744H48.5408V19.604C48.5408 19.044 48.3961 18.596 48.1068 18.26C47.8174 17.9147 47.4208 17.742 46.9168 17.742ZM57.174 24C56.7727 24 56.4647 23.888 56.25 23.664C56.0354 23.4307 55.9047 23.1367 55.858 22.782H55.788C55.648 23.2393 55.3914 23.5847 55.018 23.818C54.6447 24.0513 54.192 24.168 53.66 24.168C52.904 24.168 52.3207 23.972 51.91 23.58C51.5087 23.188 51.308 22.6607 51.308 21.998C51.308 21.27 51.5694 20.724 52.092 20.36C52.624 19.996 53.3987 19.814 54.416 19.814H55.732V19.198C55.732 18.75 55.6107 18.4047 55.368 18.162C55.1254 17.9193 54.7474 17.798 54.234 17.798C53.8047 17.798 53.4547 17.8913 53.184 18.078C52.9134 18.2647 52.6847 18.5027 52.498 18.792L51.588 17.966C51.8307 17.5553 52.1714 17.2193 52.61 16.958C53.0487 16.6873 53.6227 16.552 54.332 16.552C55.2747 16.552 55.998 16.7713 56.502 17.21C57.006 17.6487 57.258 18.2787 57.258 19.1V22.754H58.028V24H57.174ZM54.094 23.006C54.57 23.006 54.962 22.9033 55.27 22.698C55.578 22.4833 55.732 22.1987 55.732 21.844V20.794H54.444C53.3894 20.794 52.862 21.1207 52.862 21.774V22.026C52.862 22.3527 52.9694 22.6 53.184 22.768C53.408 22.9267 53.7114 23.006 54.094 23.006ZM62.3376 24.168C61.815 24.168 61.3483 24.0793 60.9376 23.902C60.527 23.7247 60.1816 23.4727 59.9016 23.146C59.6216 22.81 59.407 22.4087 59.2576 21.942C59.1083 21.466 59.0336 20.9387 59.0336 20.36C59.0336 19.7813 59.1083 19.2587 59.2576 18.792C59.407 18.316 59.6216 17.9147 59.9016 17.588C60.1816 17.252 60.527 16.9953 60.9376 16.818C61.3483 16.6407 61.815 16.552 62.3376 16.552C63.0656 16.552 63.663 16.7153 64.1296 17.042C64.5963 17.3687 64.937 17.8027 65.1516 18.344L63.8916 18.932C63.789 18.596 63.607 18.33 63.3456 18.134C63.0936 17.9287 62.7576 17.826 62.3376 17.826C61.7776 17.826 61.353 18.0033 61.0636 18.358C60.7836 18.7033 60.6436 19.156 60.6436 19.716V21.018C60.6436 21.578 60.7836 22.0353 61.0636 22.39C61.353 22.7353 61.7776 22.908 62.3376 22.908C62.7856 22.908 63.1403 22.8007 63.4016 22.586C63.6723 22.362 63.887 22.068 64.0456 21.704L65.2076 22.32C64.965 22.9173 64.601 23.3747 64.1156 23.692C63.6303 24.0093 63.0376 24.168 62.3376 24.168ZM68.6764 24C68.1444 24 67.743 23.8647 67.4724 23.594C67.2017 23.314 67.0664 22.922 67.0664 22.418V17.966H65.9324V16.72H66.5484C66.8004 16.72 66.973 16.664 67.0664 16.552C67.169 16.44 67.2204 16.258 67.2204 16.006V14.732H68.5924V16.72H70.1184V17.966H68.5924V22.754H70.0064V24H68.6764ZM81.2982 24L80.4162 21.354H76.7622L75.9082 24H74.2982L77.6302 14.228H79.6182L82.9502 24H81.2982ZM78.6242 15.684H78.5542L77.1402 19.996H80.0242L78.6242 15.684ZM84.3518 24V16.72H85.8778V18.12H85.9478C86.0504 17.7467 86.2651 17.42 86.5918 17.14C86.9184 16.86 87.3711 16.72 87.9498 16.72H88.3558V18.19H87.7538C87.1471 18.19 86.6804 18.288 86.3538 18.484C86.0364 18.68 85.8778 18.9693 85.8778 19.352V24H84.3518ZM90.4811 15.418C90.1638 15.418 89.9305 15.3433 89.7811 15.194C89.6411 15.0447 89.5711 14.8533 89.5711 14.62V14.382C89.5711 14.1487 89.6411 13.9573 89.7811 13.808C89.9305 13.6587 90.1638 13.584 90.4811 13.584C90.7985 13.584 91.0271 13.6587 91.1671 13.808C91.3071 13.9573 91.3771 14.1487 91.3771 14.382V14.62C91.3771 14.8533 91.3071 15.0447 91.1671 15.194C91.0271 15.3433 90.7985 15.418 90.4811 15.418ZM89.7111 16.72H91.2371V24H89.7111V16.72ZM98.7502 24C98.3489 24 98.0409 23.888 97.8262 23.664C97.6116 23.4307 97.4809 23.1367 97.4342 22.782H97.3642C97.2242 23.2393 96.9676 23.5847 96.5942 23.818C96.2209 24.0513 95.7682 24.168 95.2362 24.168C94.4802 24.168 93.8969 23.972 93.4862 23.58C93.0849 23.188 92.8842 22.6607 92.8842 21.998C92.8842 21.27 93.1456 20.724 93.6682 20.36C94.2002 19.996 94.9749 19.814 95.9922 19.814H97.3082V19.198C97.3082 18.75 97.1869 18.4047 96.9442 18.162C96.7016 17.9193 96.3236 17.798 95.8102 17.798C95.3809 17.798 95.0309 17.8913 94.7602 18.078C94.4896 18.2647 94.2609 18.5027 94.0742 18.792L93.1642 17.966C93.4069 17.5553 93.7476 17.2193 94.1862 16.958C94.6249 16.6873 95.1989 16.552 95.9082 16.552C96.8509 16.552 97.5742 16.7713 98.0782 17.21C98.5822 17.6487 98.8342 18.2787 98.8342 19.1V22.754H99.6042V24H98.7502ZM95.6702 23.006C96.1462 23.006 96.5382 22.9033 96.8462 22.698C97.1542 22.4833 97.3082 22.1987 97.3082 21.844V20.794H96.0202C94.9656 20.794 94.4382 21.1207 94.4382 21.774V22.026C94.4382 22.3527 94.5456 22.6 94.7602 22.768C94.9842 22.9267 95.2876 23.006 95.6702 23.006Z" fill="white"/>
<rect x="0.5" y="0.5" width="112" height="36" rx="7.5" stroke="#2F3A46" stroke-dasharray="4 4"/>
<defs>
<clipPath id="clip0_6585_844574">
<rect width="18" height="15.5999" fill="white" transform="translate(12 10.7)"/>
</clipPath>
</defs>
</svg>
